resources/svg/nodejs-o.svg

<svg xmlns="http://www.w3.org/2000/svg" viewBox="0 0 15 15" fill="none"><path d="M11.5 6V5.83333C11.5 5.09695 10.903 4.5 10.1667 4.5H9C8.17157 4.5 7.5 5.17157 7.5 6C7.5 6.82843 8.17157 7.5 9 7.5H10C10.8284 7.5 11.5 8.17157 11.5 9C11.5 9.82843 10.8284 10.5 10 10.5H9C8.17157 10.5 7.5 9.82843 7.5 9M5.5 4V9.26393C5.5 10.0215 5.072 10.714 4.39443 11.0528L3.5 11.5M1.5 10.5V4.5L7.5 1L13.5 4.5V10.5L7.5 14L1.5 10.5Z" stroke="black"/></svg>

<svg xmlns="http://www.w3.org/2000/svg" viewBox="0 0 15 15" fill="none"><path d="M11.5 6v-.167c0-.736-.597-1.333-1.333-1.333H9a1.5 1.5 0 100 3h1a1.5 1.5 0 010 3H9A1.5 1.5 0 017.5 9m-2-5v5.264a2 2 0 01-1.106 1.789L3.5 11.5m-2-1v-6l6-3.5 6 3.5v6l-6 3.5-6-3.5z" stroke="currentColor"/></svg>
